public/images/library.svg

<svg width="23" height="24" viewBox="0 0 23 24" fill="none" xmlns="http://www.w3.org/2000/svg">
<path d="M16.7709 4.5C14.9021 4.5 12.8896 4.9 11.5 6C10.1105 4.9 8.09796 4.5 6.22921 4.5C4.83962 4.5 3.36379 4.72 2.12754 5.29C1.42796 5.62 0.958374 6.33 0.958374 7.14V18.42C0.958374 19.72 2.12754 20.68 3.33504 20.36C4.27421 20.11 5.27087 20 6.22921 20C7.72421 20 9.31504 20.26 10.5992 20.92C11.1742 21.22 11.8259 21.22 12.3913 20.92C13.6755 20.25 15.2663 20 16.7613 20C17.7196 20 18.7163 20.11 19.6555 20.36C20.863 20.69 22.0321 19.73 22.0321 18.42V7.14C22.0321 6.33 21.5625 5.62 20.863 5.29C19.6363 4.72 18.1605 4.5 16.7709 4.5ZM20.125 17.23C20.125 17.86 19.5692 18.32 18.975 18.21C18.2563 18.07 17.5088 18.01 16.7709 18.01C15.1417 18.01 12.7938 18.66 11.5 19.51V8C12.7938 7.15 15.1417 6.5 16.7709 6.5C17.6525 6.5 18.5246 6.59 19.3584 6.78C19.7992 6.88 20.125 7.29 20.125 7.76V17.23Z" fill="#3F4040"/>
<path d="M13.3976 11.01C13.0909 11.01 12.813 10.81 12.7172 10.49C12.5926 10.1 12.8034 9.67001 13.1772 9.55001C14.653 9.05001 16.5601 8.89001 18.3138 9.10001C18.7068 9.15001 18.9943 9.52001 18.9463 9.93001C18.8984 10.34 18.5438 10.64 18.1509 10.59C16.5984 10.4 14.9022 10.55 13.618 10.98C13.5413 10.99 13.4647 11.01 13.3976 11.01Z" fill="#312ED7"/>
<path d="M13.3976 13.67C13.0909 13.67 12.813 13.47 12.7172 13.15C12.5926 12.76 12.8034 12.33 13.1772 12.21C14.6434 11.71 16.5601 11.55 18.3138 11.76C18.7068 11.81 18.9943 12.18 18.9463 12.59C18.8984 13 18.5438 13.3 18.1509 13.25C16.5984 13.06 14.9022 13.21 13.618 13.64C13.5413 13.66 13.4647 13.67 13.3976 13.67Z" fill="#312ED7"/>
<path d="M13.3976 16.33C13.0909 16.33 12.813 16.13 12.7172 15.81C12.5926 15.42 12.8034 14.99 13.1772 14.87C14.6434 14.37 16.5601 14.21 18.3138 14.42C18.7068 14.47 18.9943 14.84 18.9463 15.25C18.8984 15.66 18.5438 15.95 18.1509 15.91C16.5984 15.72 14.9022 15.87 13.618 16.3C13.5413 16.32 13.4647 16.33 13.3976 16.33Z" fill="#312ED7"/>
</svg>

<svg width="23" height="24" fill="none" xmlns="http://www.w3.org/2000/svg"><path d="M16.77 4.5c-1.868 0-3.88.4-5.27 1.5-1.39-1.1-3.402-1.5-5.27-1.5-1.39 0-2.866.22-4.102.79-.7.33-1.17 1.04-1.17 1.85v11.28c0 1.3 1.17 2.26 2.377 1.94.94-.25 1.936-.36 2.894-.36 1.495 0 3.086.26 4.37.92.575.3 1.227.3 1.792 0 1.284-.67 2.875-.92 4.37-.92.959 0 1.955.11 2.895.36 1.207.33 2.376-.63 2.376-1.94V7.14c0-.81-.47-1.52-1.169-1.85-1.227-.57-2.703-.79-4.092-.79Zm3.355 12.73a.98.98 0 0 1-1.15.98c-.719-.14-1.466-.2-2.204-.2-1.63 0-3.977.65-5.271 1.5V8c1.294-.85 3.642-1.5 5.27-1.5.883 0 1.755.09 2.588.28.441.1.767.51.767.98v9.47Z" fill="#3F4040"/><path d="M13.398 11.01a.71.71 0 0 1-.68-.52c-.125-.39.085-.82.46-.94 1.475-.5 3.382-.66 5.136-.45.393.05.68.42.632.83-.048.41-.402.71-.795.66-1.553-.19-3.249-.04-4.533.39-.077.01-.153.03-.22.03ZM13.398 13.67a.71.71 0 0 1-.68-.52c-.125-.39.085-.82.46-.94 1.465-.5 3.382-.66 5.136-.45.393.05.68.42.632.83-.048.41-.402.71-.795.66-1.553-.19-3.249-.04-4.533.39a.892.892 0 0 1-.22.03ZM13.398 16.33a.71.71 0 0 1-.68-.52c-.125-.39.085-.82.46-.94 1.465-.5 3.382-.66 5.136-.45.393.05.68.42.632.83a.735.735 0 0 1-.795.66c-1.553-.19-3.249-.04-4.533.39a.892.892 0 0 1-.22.03Z" fill="#312ED7"/></svg>
